X:1
T:Ladybird
M:3/4
L:1/4
K:C
 D E/2 F3/2| F E3/2 D/2| E3| z2 ^C| ^C D E| E A,3/2 A,/2| E/2 F3/2 E|\
 D2 A,| D/2 E3/2 F| F E3/2 D/2| E3| z2 A,| ^C/2 C3/2 D| E/2 A,3/2 A,|\
 E F E/2 D/2-| D3| G2 G| G F D| E3| z2 A,| E E E| E D/2 E3/2| F3| z2 z|\
 D E/2 F3/2| F E/2 D3/2| ^C C/2 D3/2| E2 A,| ^C C D| E G, G,| E F E/2 D/2-|\
 D3|

